X:84
T:The First Night In America
R:jig
M:6/8
L:1/8
K:Gmaj
|:D|GFG AFD|GFG Bcd|(4efge dBG|ABG AFD|
GFG AFD|GFG Bcd|(4efge dBG|AGF G2:|
|:B/2d/2|gfg bge|d^cd e=cA|Bdg gfg|abg afd|
gfg bge|d^cd e=cA|Bdg dBG|AGF G2:|

